assets/images/squiggle-white.svg

<svg fill="none" height="24" viewBox="0 0 43 24" width="43" xmlns="http://www.w3.org/2000/svg"><g fill="#fff"><path d="m27.5 22.1878c4.7305 0 5.3612 1.8322 9.1667 1.812 3.7844.0202 4.4361-1.812 9.1666-1.812s5.3823 1.8322 9.1667 1.812v-4.2079c-3.7844.0201-4.4362-1.7919-9.1667-1.7919s-5.3612 1.812-9.1666 1.7919c-3.8055.0201-4.4362-1.7919-9.1667-1.7919s-5.3612 1.812-9.1667 1.7919c-3.7844.0201-4.4361-1.7919-9.16663-1.7919-4.73051 0-5.38227 1.812-9.16667 1.7919v4.2079c3.7844.0202 4.43616-1.812 9.16667-1.812 4.73053 0 5.36123 1.8322 9.16663 1.812 3.8055.0202 4.4362-1.812 9.1667-1.812z"/><path d="m27.5 13.1878c4.7305 0 5.3612 1.8322 9.1667 1.812 3.7844.0202 4.4361-1.812 9.1666-1.812s5.3823 1.8322 9.1667 1.812v-4.2079c-3.7844.0201-4.4362-1.7919-9.1667-1.7919s-5.3612 1.812-9.1666 1.7919c-3.8055.0201-4.4362-1.7919-9.1667-1.7919s-5.3612 1.812-9.1667 1.7919c-3.7844.0201-4.4361-1.7919-9.16663-1.7919-4.73051 0-5.38227 1.812-9.16667 1.7919v4.2079c3.7844.0202 4.43616-1.812 9.16667-1.812 4.73053 0 5.36123 1.8322 9.16663 1.812 3.8055.0202 4.4362-1.812 9.1667-1.812z"/><path d="m27.5 4.1878c4.7305 0 5.3612 1.83217 9.1667 1.81204 3.7844.02013 4.4361-1.81204 9.1666-1.81204s5.3823 1.83217 9.1667 1.81204v-4.20794c-3.7844.02013-4.4362-1.7919-9.1667-1.7919s-5.3612 1.81203-9.1666 1.7919c-3.8055.02013-4.4362-1.7919-9.1667-1.7919s-5.3612 1.81203-9.1667 1.7919c-3.7844.02013-4.4361-1.7919-9.16663-1.7919-4.73051 0-5.38227 1.81203-9.16667 1.7919v4.20794c3.7844.02013 4.43616-1.81204 9.16667-1.81204 4.73053 0 5.36123 1.83217 9.16663 1.81204 3.8055.02013 4.4362-1.81204 9.1667-1.81204z"/></g></svg>

<svg width="43" height="24" viewBox="0 0 43 24" fill="none" xmlns="http://www.w3.org/2000/svg">
<path d="M27.5 22.1878C32.2305 22.1878 32.8612 24.02 36.6667 23.9998C40.4511 24.02 41.1028 22.1878 45.8333 22.1878C50.5638 22.1878 51.2156 24.02 55 23.9998V19.7919C51.2156 19.812 50.5638 18 45.8333 18C41.1028 18 40.4721 19.812 36.6667 19.7919C32.8612 19.812 32.2305 18 27.5 18C22.7695 18 22.1388 19.812 18.3333 19.7919C14.5489 19.812 13.8972 18 9.16667 18C4.43616 18 3.7844 19.812 0 19.7919V23.9998C3.7844 24.02 4.43616 22.1878 9.16667 22.1878C13.8972 22.1878 14.5279 24.02 18.3333 23.9998C22.1388 24.02 22.7695 22.1878 27.5 22.1878Z" fill="white"/>
<path d="M27.5 13.1878C32.2305 13.1878 32.8612 15.02 36.6667 14.9998C40.4511 15.02 41.1028 13.1878 45.8333 13.1878C50.5638 13.1878 51.2156 15.02 55 14.9998V10.7919C51.2156 10.812 50.5638 9 45.8333 9C41.1028 9 40.4721 10.812 36.6667 10.7919C32.8612 10.812 32.2305 9 27.5 9C22.7695 9 22.1388 10.812 18.3333 10.7919C14.5489 10.812 13.8972 9 9.16667 9C4.43616 9 3.7844 10.812 0 10.7919V14.9998C3.7844 15.02 4.43616 13.1878 9.16667 13.1878C13.8972 13.1878 14.5279 15.02 18.3333 14.9998C22.1388 15.02 22.7695 13.1878 27.5 13.1878Z" fill="white"/>
<path d="M27.5 4.1878C32.2305 4.1878 32.8612 6.01997 36.6667 5.99984C40.4511 6.01997 41.1028 4.1878 45.8333 4.1878C50.5638 4.1878 51.2156 6.01997 55 5.99984V1.7919C51.2156 1.81203 50.5638 0 45.8333 0C41.1028 0 40.4721 1.81203 36.6667 1.7919C32.8612 1.81203 32.2305 0 27.5 0C22.7695 0 22.1388 1.81203 18.3333 1.7919C14.5489 1.81203 13.8972 0 9.16667 0C4.43616 0 3.7844 1.81203 0 1.7919V5.99984C3.7844 6.01997 4.43616 4.1878 9.16667 4.1878C13.8972 4.1878 14.5279 6.01997 18.3333 5.99984C22.1388 6.01997 22.7695 4.1878 27.5 4.1878Z" fill="white"/>
</svg>
